X:200
T:Shaskeen
M:C
L:1/8
K:G Major
DE|G3B A3c|dged cAAc|BdBG AcAF|GBAG FDEF|!
G3B A3c|dged cAAg|fefa ecAc|BGAF G2:|!
Bc|dggf g2fg|abag fddc|BdBG AcAF|GBAG FDBc|!
dggf g2fg|abag fdde|fefa ecAc|BGAF G2:|!
